!!!COM: Schiørring, Niels
!!!CDT: 1743-1798
!!!OPR@@DA: Choral-Bog
!!!ONM: 52
!!!OTL@@DA: Jeſu! du min Glæde
**kern	**fb	**kern	**kern	**kern	**kern	**kern	**kern	**kern
*part6	*part6	*part6	*part5	*part5	*part4	*part3	*part2	*part1
*staff8	*	*staff7	*staff6	*staff5	*staff4	*staff3	*staff2	*staff1
*clefF4	*	*clefC1	*clefF4	*clefC1	*clefF4	*clefC4	*clefC3	*clefC1
*mclefF4	*	*mclefG2	*mclefF4	*mclefG2	*mclefF4	*mclefGv2	*mclefG2	*mclefG2
*k[]	*	*k[]	*k[]	*k[]	*k[]	*k[]	*k[]	*k[]
*M4/4	*	*M4/4	*M4/4	*M4/4	*M4/4	*M4/4	*M4/4	*M4/4
*met(c)	*	*met(c)	*met(c)	*met(c)	*met(c)	*met(c)	*met(c)	*met(c)
*MM180	*	*MM180	*MM180	*MM180	*MM180	*MM180	*MM180	*MM180
=1	=1	=1	=1	=1	=1	=1	=1	=1
*	*	*	*^	*^	*	*	*	*
2D	.	2a	2ryy	2D	2d	2f	2D	2A	2f	2a
2C	6	2a	2A	2C	2a	2e	2C	2c	2e	2a
=2	=2	=2	=2	=2	=2	=2	=2	=2	=2	=2
4BB	6	2g	4B	4BB	2g	4d	(4BB	(4d	(4d	2g
4C#X	5	.	4A	4C#X	.	4e	4C#X)	4A)	4e)	.
2D	.	2f	2A	2D	2f	[2d	2D	2A	[2d	2f
=3	=3	=3	=3	=3	=3	=3	=3	=3	=3	=3
2GG	6 5 -	1e	2ryy	2GG	2B-X	2d]	(2GG	(2B-X	(2d]	1e
2AA	#	.	4A	2AA	4ryy	2c#X	2AA)	2A)	2c#X)	.
.	.	.	4G	.	4ryy	.	.	.	.	.
=4	=4	=4	=4	=4	=4	=4	=4	=4	=4	=4
1D	.	1d	1F	1D	1d	1A	1D	1F	1d	1d
=5	=5	=5	=5	=5	=5	=5	=5	=5	=5	=5
2F	.	2a	1c	2F	2a	2f	2F	2A	2c	2a
2F#X	5	2a	.	2F#X	2a	2d	2F#X	2c	2d	2a
=6	=6	=6	=6	=6	=6	=6	=6	=6	=6	=6
2G	.	2b	2B	2G	2b	2d	2G	2B	2d	2b
2B-X	#2|	2cc#X	2ryy	2B-X	2e	2g	2B-X	2e	2g	2cc#X
=7	=7	=7	=7	=7	=7	=7	=7	=7	=7	=7
2A	6 4	1dd	1ryy	2A	1f	2a	(2A	1f	(2a	1dd
2G#X	7 5	.	.	2G#X	.	2bni	2G#X)	.	2b)	.
=8	=8	=8	=8	=8	=8	=8	=8	=8	=8	=8
1A	#	1cc#X	1ryy	1A	1e	1a	1A	1e	1a	1cc#X
=9	=9	=9	=9	=9	=9	=9	=9	=9	=9	=9
2F	6	2dd	2d	2F	2dd	2a	2F	2d	2a	2dd
2D	.	2ff	[2d	2D	2ff	2a	2D	[2d	2a	2ff
=10	=10	=10	=10	=10	=10	=10	=10	=10	=10	=10
2G	6 5 -	2ee	2d]	2G	2ee	2b-X	2G	2d]	2b-X	2ee
2A	#	2ee	2c#X	2A	2ee	2a	2A	2c#X	2a	2ee
=11	=11	=11	=11	=11	=11	=11	=11	=11	=11	=11
*	*	*	*	*	*	*^	*	*	*	*
1D	.	1dd	1d	1D	1dd	1f	1a\	1D	1d	1f	1dd
*	*	*	*	*	*	*v	*v	*	*	*	*
=12:|!	=12:|!	=12:|!	=12:|!	=12:|!	=12:|!	=12:|!	=12:|!	=12:|!	=12:|!	=12:|!
2F	.	2a	2c	2F	2a	2f	2F	2c	2f	2a
2E-X	2	2a	2c	2E-X	2a	2f	2E-X	2c	2f	2a
=13	=13	=13	=13	=13	=13	=13	=13	=13	=13	=13
2D	-r6	2b-X	2B-X	2D	2b-X	2f	2D	2B-X	2f	2b-X
2C	6 4	2a	2c	2C	2a	[2f	2C	2c	[2f	2a
=14	=14	=14	=14	=14	=14	=14	=14	=14	=14	=14
2BBni	5	2g	2ryy	2BBni	2d	2f]	2BB	2d	2f]	2g
2C	.	2g	4c	2C	2g	2e	2C	4c	2e	2g
.	.	.	4B-X	.	.	.	.	4B-X	.	.
=15	=15	=15	=15	=15	=15	=15	=15	=15	=15	=15
1FF	.	1f	1ryy	1FF	1A	1c	1FF	1A	1f	1f
=16	=16	=16	=16	=16	=16	=16	=16	=16	=16	=16
2F	.	2a	1ryy	2F	2c	2f	2F	2A	2c	2a
2F#X	6	2a	.	2F#X	2d	2a	2F#X	2A	2d	2a
=17	=17	=17	=17	=17	=17	=17	=17	=17	=17	=17
2G	.	2b	1ryy	2G	2d	2g	2G	2G	2d	2b
2E	#6\	2cc#X	.	2E	2e	2g	2E	2G	2e	2cc#X
=18	=18	=18	=18	=18	=18	=18	=18	=18	=18	=18
2D	.	2dd	2ryy	2D	2f	2a	2D	2A	2f	2dd
2A	n	2ccni	2e	2A	2ccni	[2a	2A	[2A	2e	2ccni
=19	=19	=19	=19	=19	=19	=19	=19	=19	=19	=19
1E	4	1b	2e	1E	1b	2a]	1E	(2A]	(2e	1b
.	#	.	2d	.	.	2g#X	.	2G#X)	2d)	.
=20	=20	=20	=20	=20	=20	=20	=20	=20	=20	=20
1AA	.	1a	1ryy	1AA	1c	1e	1AA	1A	1c	1a
=21	=21	=21	=21	=21	=21	=21	=21	=21	=21	=21
2D	.	2f	2A	2D	2f	2d	2D	2A	2d	2f
2C	2	2f	2A	2C	2f	2d	2C	2A	2d	2f
=22	=22	=22	=22	=22	=22	=22	=22	=22	=22	=22
2BB-X	6	2g	2G	2BB-X	2g	2d	2BB-X	2G	2d	2g
2AA	6 4	2f	2A	2AA	2f	[2d	2AA	2A	[2d	2f
=23	=23	=23	=23	=23	=23	=23	=23	=23	=23	=23
2GG#X	5	1e	2ryy	2GG#X	2Bni	2d]	(2GG#X	(2B	(2d]	1e
2AA	#	.	4A	2AA	4ryy	2c#X	2AA)	2A)	2c#X)	.
.	.	.	4Gni	.	4ryy	.	.	.	.	.
=24	=24	=24	=24	=24	=24	=24	=24	=24	=24	=24
1D	.	1d	1F	1D	1d	1A	1D	1F	1d	1d
*	*	*	*v	*v	*	*	*	*	*	*
*	*	*	*	*v	*v	*	*	*	*
==	==	==	==	==	==	==	==	==
*-	*-	*-	*-	*-	*-	*-	*-	*-
!!!system-decoration: {(s1,s2,s3,s4)}{(s5,s6)}{(s7,s8)}
!!!RDF**kern: i = editorial accidental
!!!RDF**kern: > = above
!!!RDF**kern: < = below
!!!AGN: chorale
!!!EED: Derek Remeš
!!!EED2: Victor Phan
!!!END: 2023/11/28
!!!ENC: Wolfgang Drescher
!!!EEV: 2023/12/08
!!!title: @{ONM}. @{OTL}